src/landing/public/images/social/telegram.svg

<svg width="27" height="31" viewBox="0 0 27 31" fill="none" xmlns="http://www.w3.org/2000/svg">
<path fill-rule="evenodd" clip-rule="evenodd" d="M26.6502 15.5398C26.6502 23.9757 20.6843 30.8144 13.3251 30.8144C5.96584 30.8144 0 23.9757 0 15.5398C0 7.10388 5.96584 0.265228 13.3251 0.265228C20.6843 0.265228 26.6502 7.10388 26.6502 15.5398ZM13.8026 11.5416C12.5066 12.1595 9.91625 13.4385 6.03172 15.3785C5.40093 15.6661 5.07051 15.9474 5.04042 16.2224C4.98958 16.6873 5.49741 16.8703 6.18894 17.1196C6.283 17.1536 6.38047 17.1887 6.48039 17.2259C7.16074 17.4794 8.07593 17.776 8.55172 17.7877C8.98328 17.7984 9.46497 17.5945 9.99677 17.1758C13.6262 14.3675 15.4997 12.948 15.6173 12.9174C15.7004 12.8958 15.8153 12.8686 15.8933 12.948C15.9711 13.0274 15.9636 13.1777 15.9552 13.2181C15.9049 13.4639 13.9115 15.5883 12.8799 16.6877C12.5583 17.0303 12.3303 17.2735 12.2836 17.329C12.1791 17.4534 12.0726 17.5711 11.9704 17.6841C11.3383 18.3825 10.8643 18.9063 11.9966 19.7617C12.5408 20.1727 12.9762 20.5126 13.4106 20.8517C13.885 21.2221 14.3581 21.5914 14.9703 22.0515C15.1263 22.1687 15.2752 22.2904 15.4203 22.4089C15.9724 22.8601 16.4685 23.2654 17.0812 23.2008C17.4373 23.1632 17.8051 22.7794 17.9919 21.6349C18.4333 18.9297 19.3009 13.0685 19.5015 10.6532C19.5191 10.4416 19.497 10.1707 19.4793 10.0519C19.4615 9.93299 19.4244 9.7636 19.2896 9.63821C19.1299 9.48972 18.8835 9.4584 18.7733 9.46062C18.272 9.47075 17.5032 9.77724 13.8026 11.5416Z" fill="white"/>
</svg>

<?xml version="1.0" encoding="utf-8"?>
<!-- Generator: Adobe Illustrator 27.0.0, SVG Export Plug-In . SVG Version: 6.00 Build 0)  -->
<svg version="1.1" id="Layer_1" xmlns="http://www.w3.org/2000/svg" xmlns:xlink="http://www.w3.org/1999/xlink" x="0px" y="0px"
	 viewBox="0 0 27 31" style="enable-background:new 0 0 27 31;" xml:space="preserve">
<style type="text/css">
	.st0{fill-rule:evenodd;clip-rule:evenodd;fill:#BFA38A;}
</style>
<path class="st0" d="M26.7,15.5c0,8.4-6,15.3-13.3,15.3C6,30.8,0,24,0,15.5C0,7.1,6,0.3,13.3,0.3C20.7,0.3,26.7,7.1,26.7,15.5z
	 M13.8,11.5c-1.3,0.6-3.9,1.9-7.8,3.8c-0.6,0.3-1,0.6-1,0.8c-0.1,0.5,0.5,0.6,1.1,0.9c0.1,0,0.2,0.1,0.3,0.1
	c0.7,0.3,1.6,0.6,2.1,0.6c0.4,0,0.9-0.2,1.4-0.6c3.6-2.8,5.5-4.2,5.6-4.3c0.1,0,0.2,0,0.3,0C16,13,16,13.2,16,13.2
	c-0.1,0.2-2,2.4-3.1,3.5c-0.3,0.3-0.5,0.6-0.6,0.6c-0.1,0.1-0.2,0.2-0.3,0.4c-0.6,0.7-1.1,1.2,0,2.1c0.5,0.4,1,0.8,1.4,1.1
	c0.5,0.4,0.9,0.7,1.6,1.2c0.2,0.1,0.3,0.2,0.4,0.4c0.6,0.5,1,0.9,1.7,0.8c0.4,0,0.7-0.4,0.9-1.6c0.4-2.7,1.3-8.6,1.5-11
	c0-0.2,0-0.5,0-0.6c0-0.1-0.1-0.3-0.2-0.4c-0.2-0.1-0.4-0.2-0.5-0.2C18.3,9.5,17.5,9.8,13.8,11.5z"/>
</svg>
